X:1
T:Hark! He is Calling
T:Hark! He is Calling
T:Hart Pease Danks
T:Frances Jane (Fanny) Crosby, 1901
T:Public Domain Courtesy of the Cyber Hymnal™
T:Public Domain Courtesy of the Cyber Hymnal™
C:Hart Pease Danks
Z:Public Domain
Z:Courtesy of the Cyber Hymnal™
%%score ( 1 2 ) ( 3 4 )
L:1/8
Q:1/4=105
M:3/4
K:F
V:1 treble 
V:2 treble 
V:3 bass 
V:4 bass 
V:1
 C2 | [CF][FA] [FA]2 [FA]2 | [EG][GB] [GB]2 [EG]2 | [FA]3 [FA] [FB][Fd] | [Fd]2 [Fc]2 ([FA][Ac]) | %5
w: 1.~Though|young in years, we|are all taught, The|way that leads to|Je- sus; The *|
w: 2.~How|hap- py they, who|safe- ly rest With-|in the fold of|Je- sus; Be- *|
w: 3.~There|is a door that|leads from sin, That|bless- èd door is|Je- sus; And *|
w: 4.~And,|as His sheep have|learned to know, The|lov- ing voice of|Je- sus; So *|
 [Ac][GB] [GB]2 ([EG][GB]) | [GB][FA] [FA]2 [Fc]2 | [Ec]3 [EG] [Fd][FG] | [Ec]2 [Ec]4 || %9
w: way that must by *|faith be sought, If|we would come to|Je- sus.|
w: neath His kind pro- *|tect- ion blest, They|walk and talk with|Je- sus.|
w: there we all must *|en- ter in, To|reach the fold of|Je- sus.|
w: we, like them, may *|glad- ly go, And|ev- er dwell with|Je- sus.|
"^Refrain" [Fc]2 [FB][FA] [EA][EB][EG]>[EA] | F6 (FG) | [FA]2 [FA][FA] [FB][FB][Fd][Fd] | %12
w: |||
w: Hark! He is call- ing ev- ery|day, He *|says to each one, “I am the|
w: |||
w: |||
 c4- [Fc][Fc][Fc][Fc] | [Fd]2 [Fd]2 [Fc]>[FA][FA][FA] | ([EB][EB] [FB][GB] [FA]2) [Fd]2 | %15
w: |||
w: way.” Let us a- rise,|* a- rise with- out de-|lay, * * * * And|
w: |||
w: |||
 [FG]2 (GA) [EB]2 [CE]2 | [EG]4 F2 |] %17
w: ||
w: come at * once to|Je- sus.|
w: ||
w: ||
V:2
 C2 | x6 | x6 | x6 | x6 | x6 | x6 | x6 | x6 || x8 | (E2 DD C2) C2 | x8 | F F E E x4 | x8 | x8 | %15
 x2 F2 x4 | x4 F2 |] %17
V:3
 [F,A,]2 | [F,A,][F,C] [F,C]2 [F,C]2 | [C,C][C,C] [C,C]2 [C,C]2 | [F,C]3 [_E,C] [D,B,][B,,B,] | %4
w: ~|~ ~ ~ ~|~ ~ ~ ~|~ ~ ~ ~|
 [F,B,]2 [F,A,]2 [F,C]2 | [E,C][E,C] [E,C]2 [C,C]2 | [F,C][F,C] [F,C]2 [F,A,]2 | %7
w: ~ ~ ~|~ ~ ~ ~|~ ~ ~ ~|
 G,3 [G,C] [G,=B,][G,B,] | [C,C]2 [C,B,]4 || [F,A,]2 [F,D][F,C] [C,C][C,D][C,B,]>[C,C] | %10
w: ~ ~ ~ ~|~ ~|~ ~ ~ ~ ~ ~ ~|
 [F,A,]2 [B,,B,][D,B,] [F,A,]2 (A,B,) | [F,C]2 [F,C][_E,C] [D,B,][D,B,][B,,B,][B,,B,] | %12
w: ~ ev- ery day ~ *|~ ~ ~ ~ ~ ~ ~|
 [F,A,][F,A,] [G,B,][G,B,] [A,C][F,A,][F,A,][F,A,] | [B,,B,]2 [D,B,]2 [F,A,]>[F,C][F,C][F,C] | %14
w: ~ “I am the way.” ~ ~ ~|~ ~ ~ ~ ~ ~|
 [G,C][C,C] [D,C][E,C] [F,C]2 [B,,B,]2 | [C,B,]2 (B,A,) [C,G,]2 [C,B,]2 | [C,B,]4 [F,A,]2 |] %17
w: ~ with- out de- lay *|||
V:4
 x2 | x6 | x6 | x6 | x6 | x6 | x6 | G,3 x3 | x6 || x8 | x6 F,2 | x8 | x8 | x8 | x8 | x2 C,2 x4 | %16
 x6 |] %17

